X: 1
T: I Have A Bonnet Trimmed With Blue
M: 2/4
L: 1/8
R: polka
K: Gmaj
G A/B/ ce|dGB2|d e/d/ cA|AGB2|
G A/B/ ce| dGB2|d e/d/ cA|AGG2:|
d e/f/ g f/e/|dGB2|d e/d/ cA|AGB2|
d e/f/ g f/e/|dGB2|d e/d/ cA|AGG2:|
